X: 17827
T: Hopalong
R: jig
M: 6/8
K: Eminor
|:~E3 DEF|GAB ed2|F2F EFD|A,B,D EFD|
~E3 DEF|GAB edA|fed BAF|dBA FED:|
e3 def|gfe dBA|F2E Dde|dBA FED|
e3 def|gfe dBA|F2A Bde|fga baf|
eaB baf|gfe dBA|F2E Dde|dBA FED|
E2E DEF|GAB ed2|fed BAF|dBA FED||

